symbols/web/videocam_off/materialsymbolsrounded/videocam_off_wght600grad200_20px.svg

<svg xmlns="http://www.w3.org/2000/svg" height="20" width="20"><path d="m18.188 14.104-2.563-2.583v1.229l-2.646-2.646V5.167H8.042L5.396 2.521h7.583q1.104 0 1.875.781.771.781.771 1.865v3.229l2.563-2.584q.333-.312.75-.145.416.166.416.625v7.333q0 .437-.416.615-.417.177-.75-.136Zm-1.313 5.646L.375 3.229q-.354-.312-.344-.771.011-.458.365-.812.333-.334.792-.334.458 0 .791.334L18.5 18.167q.333.333.344.791.01.459-.344.813-.354.333-.812.333-.459 0-.813-.354ZM10.542 7.688ZM2.875 2.521l2.646 2.646H3.292l.02 9.666h9.667v-2.208l2.604 2.604q-.125.979-.854 1.615-.729.635-1.75.635H3.312q-1.104 0-1.875-.781-.77-.781-.77-1.865V5.167q0-1.021.645-1.771.646-.75 1.584-.854Zm4.75 7.979Z"/></svg>

<svg xmlns="http://www.w3.org/2000/svg" height="20" width="20"><path d="M18.188 14.104 15.625 11.521V12.75L12.979 10.104V5.167Q12.979 5.167 12.979 5.167Q12.979 5.167 12.979 5.167H8.042L5.396 2.521H12.979Q14.083 2.521 14.854 3.302Q15.625 4.083 15.625 5.167V8.396L18.188 5.812Q18.521 5.5 18.938 5.667Q19.354 5.833 19.354 6.292V13.625Q19.354 14.062 18.938 14.24Q18.521 14.417 18.188 14.104ZM16.875 19.75 14.229 17.146Q14.083 17.271 13.74 17.375Q13.396 17.479 13.042 17.479H3.312Q2.208 17.479 1.437 16.698Q0.667 15.917 0.667 14.833V5.188Q0.667 4.771 0.771 4.406Q0.875 4.042 1 3.875L0.375 3.229Q0.021 2.917 0.031 2.458Q0.042 2 0.396 1.646Q0.729 1.312 1.188 1.312Q1.646 1.312 1.979 1.646L18.5 18.167Q18.833 18.5 18.844 18.958Q18.854 19.417 18.5 19.771Q18.146 20.104 17.688 20.104Q17.229 20.104 16.875 19.75ZM3.312 14.833H11.979Q11.979 14.833 11.969 14.833Q11.958 14.833 11.979 14.833L3.312 6.188Q3.292 6.188 3.302 6.188Q3.312 6.188 3.312 6.188V14.833Q3.312 14.833 3.312 14.833Q3.312 14.833 3.312 14.833ZM10.542 7.688Q10.542 7.688 10.542 7.688Q10.542 7.688 10.542 7.688ZM7.625 10.5Q7.625 10.5 7.625 10.5Q7.625 10.5 7.625 10.5Q7.625 10.5 7.625 10.5Q7.625 10.5 7.625 10.5Q7.625 10.5 7.625 10.5Q7.625 10.5 7.625 10.5Z"/></svg>
